X:150
T:Polka Chinoise
M:2/4
L:1/8
Q:1/8=350
K:G
gedB  G2 GG|ABGE  G2 GE|DGGE GGGA|BdBG  Adef|
gedB  G2 GG|ABGE  G2 GA|Bddd  edBG|A2 A2  G4||
K:D
AAAA  dddd|eeee  f2 d2|AAAA  gggg|fdfe  d4|
AAAA  dAAA|eAAA  f2 d2|
AAAA  gggg|fdfe  d4|e4||
